X:1079
T:Count Brown's Do.
M:C|
L:1/8
Q:1/2=66
I: :: ::
Z:Jack Campin * www.campin.me.uk * 2009
K:D
AB/c/|d2 d>d dgec|d2cB A2dc   |BAGF GB`A`G|F2TE2 D2
AB/c/|d2 d>d dged|c2d2 e3 d   |cecA B2 A^G|A2 AA AA BA/^G/|A6:|
Bc/d/|e2 ee  e2f2|edcd d2de/f/|ggfe ff`e`d|ed`cB A2 AA    |
      BG`Bd  cAce|dBdf e3 g   |fafd e2 d`c|d2 DD FF AA    |d6:|
<end>
<start>
